apps/site/public/icons/technologies/fastify.svg

<svg xmlns="http://www.w3.org/2000/svg" fill="none" viewBox="0 0 176 176" height="176" width="176">
    <path fill="white" d="M158.24 53.3631L162.94 41.1839L162.746 40.4271L116.229 52.6767C121.192 45.4959 119.485 39.7407 119.485 39.7407C119.485 39.7407 104.631 49.2271 93.3844 48.9807C82.1556 48.7343 78.53 45.7423 61.2996 51.2335C44.0692 56.7247 39.194 73.5855 34.2132 77.2111C29.2148 80.8367 13.5332 92.6287 13.5332 92.6287L13.5684 92.8399L27.7012 88.3343C27.7012 88.3343 23.8292 91.9775 15.5924 103.083C15.5924 103.083 15.4516 102.96 15.2052 102.731L15.2228 102.802C15.2228 102.802 21.8404 112.922 28.3348 111.038C28.986 110.845 29.7252 110.546 30.5348 110.123C33.1396 111.584 36.554 113.01 40.3204 113.397C40.3204 113.397 37.7684 110.44 35.6388 107.061C36.2196 106.691 36.8004 106.304 37.3988 105.917L37.1348 106.128L42.5204 108.099L41.922 103.048C41.9396 103.03 41.9572 103.03 41.9748 103.013L47.2548 104.949L46.6036 100.355C47.2724 100.003 47.9412 99.6687 48.61 99.3695L54.1188 78.5311L76.9108 62.9727L75.098 67.5311C70.4868 78.9007 61.81 81.5759 61.81 81.5759L58.1844 82.9487C55.4916 86.1343 54.3652 86.9087 53.4324 97.5919C55.5972 97.0463 57.674 96.9231 59.5572 97.4159C69.29 100.038 72.6692 111.778 70.0468 115.016C69.3956 115.826 67.8292 117.216 65.858 118.853H61.9156L61.8628 122.056C61.722 122.162 61.5988 122.267 61.458 122.373H57.4452L57.3924 125.506C57.0404 125.77 56.6884 126.034 56.3364 126.298C52.5524 126.368 47.7828 123.077 47.7828 123.077C47.7828 126.069 50.282 130.698 50.282 130.698C50.282 130.698 50.4404 130.627 50.722 130.486C50.4756 130.662 50.3348 130.768 50.3348 130.768C50.3348 130.768 60.4548 137.509 66.8084 135.01C72.4756 132.792 87.1188 121.229 99.7732 115.755L138.053 105.67L143.104 92.5935L113.924 100.285V88.5279L148.156 79.5167L153.207 66.4399L113.924 76.7887V65.0319L158.24 53.3631ZM88.7556 78.2671L97.8372 75.8735L97.9604 76.3311L95.1268 83.6703L85.7108 86.1519L88.7556 78.2671ZM91.8884 93.9839L82.4724 96.4655L85.5172 88.5807L94.5988 86.1871L94.722 86.6447L91.8884 93.9839ZM104.156 91.3439L94.7396 93.8255L97.7844 85.9407L106.866 83.5471L106.989 84.0047L104.156 91.3439Z"></path>
  </svg>

<svg xmlns="http://www.w3.org/2000/svg" width="176" height="176" fill="none" viewBox="0 0 176 176"><path fill="#fff" d="m158.24 53.363 4.7-12.18-.194-.756-46.517 12.25c4.963-7.181 3.256-12.936 3.256-12.936s-14.854 9.486-26.1 9.24c-11.23-.247-14.855-3.239-32.085 2.252-17.23 5.492-22.106 22.353-27.087 25.978-4.998 3.626-20.68 15.418-20.68 15.418l.035.21 14.133-4.505s-3.872 3.644-12.109 14.749c0 0-.14-.123-.387-.352l.018.071s6.617 10.12 13.112 8.236c.651-.193 1.39-.492 2.2-.915 2.605 1.461 6.019 2.887 9.785 3.274 0 0-2.552-2.957-4.681-6.336.58-.37 1.161-.757 1.76-1.144l-.264.211 5.385 1.971-.598-5.051c.018-.018.035-.018.053-.035l5.28 1.936-.651-4.594a35 35 0 0 1 2.006-.986l5.509-20.838L76.91 62.973l-1.813 4.558c-4.61 11.37-13.287 14.045-13.287 14.045l-3.626 1.373c-2.692 3.185-3.819 3.96-4.752 14.643 2.165-.546 4.242-.669 6.125-.176 9.733 2.622 13.112 14.362 10.49 17.6-.651.81-2.218 2.2-4.189 3.837h-3.942l-.053 3.203c-.141.106-.264.211-.405.317h-4.013l-.053 3.133-1.056.792c-3.784.07-8.553-3.221-8.553-3.221 0 2.992 2.499 7.621 2.499 7.621s.158-.071.44-.212c-.246.176-.387.282-.387.282s10.12 6.741 16.473 4.242c5.668-2.218 20.31-13.781 32.965-19.255l38.28-10.085 5.051-13.076-29.18 7.691V88.528l34.232-9.011 5.051-13.077-39.283 10.349V65.032zM88.756 78.267l9.081-2.393.123.457-2.833 7.34-9.416 2.48zm3.132 15.717-9.416 2.482 3.045-7.885 9.082-2.394.123.458zm12.268-2.64-9.416 2.482 3.044-7.885 9.082-2.394.123.458z"/></svg>
